dist/assets/icons/cpu.svg

<svg height="512pt" viewBox="0 0 512 512" width="512pt" xmlns="http://www.w3.org/2000/svg"><path d="m512 120.878906v-30h-60.855469v-30.023437h-30.023437v-60.855469h-30v60.855469h-30.050782v-60.855469h-30v60.855469h-30.046874v-60.855469h-30v60.855469h-30.046876v-60.855469h-30v60.855469h-30.046874v-60.855469h-30v60.855469h-30.050782v-60.855469h-30v60.855469h-30.023437v30.023437h-60.855469v30h60.855469v30.050782h-60.855469v30h60.855469v30.046874h-60.855469v30h60.855469v30.046876h-60.855469v30h60.855469v30.046874h-60.855469v30h60.855469v30.050782h-60.855469v30h60.855469v30.023437h30.023437v60.855469h30v-60.855469h30.050782v60.855469h30v-60.855469h30.046874v60.855469h30v-60.855469h30.046876v60.855469h30v-60.855469h30.046874v60.855469h30v-60.855469h30.050782v60.855469h30v-60.855469h30.023437v-30.023437h60.855469v-30h-60.855469v-30.050782h60.855469v-30h-60.855469v-30.046874h60.855469v-30h-60.855469v-30.046876h60.855469v-30h-60.855469v-30.046874h60.855469v-30h-60.855469v-30.050782zm-90.855469 300.265625h-330.289062v-330.289062h330.289062zm0 0"/><path d="m339 173h-166v166h166zm-30 136h-106v-106h106zm0 0"/></svg>

<svg height="512pt" viewBox="0 0 512 512" width="512pt" xmlns="http://www.w3.org/2000/svg"><path d="M512 120.879v-30h-60.855V60.855H421.12V0h-30v60.855h-30.05V0h-30v60.855h-30.048V0h-30v60.855h-30.046V0h-30v60.855H180.93V0h-30v60.855h-30.051V0h-30v60.855H60.855V90.88H0v30h60.855v30.05H0v30h60.855v30.048H0v30h60.855v30.046H0v30h60.855v30.047H0v30h60.855v30.051H0v30h60.855v30.024H90.88V512h30v-60.855h30.05V512h30v-60.855h30.048V512h30v-60.855h30.046V512h30v-60.855h30.047V512h30v-60.855h30.051V512h30v-60.855h30.024V421.12H512v-30h-60.855v-30.05H512v-30h-60.855v-30.048H512v-30h-60.855v-30.046H512v-30h-60.855V180.93H512v-30h-60.855v-30.051zm-90.855 300.266H90.855V90.855h330.29zm0 0"/><path d="M339 173H173v166h166zm-30 136H203V203h106zm0 0"/></svg>
